X:1
T: Stone's Rag
T:Lone Star Rag
M:4/4
L:1/8
Q:1/4=220
Z: Bob Buckley's adaptation, first learned from Brad Tate
K:C
V:1
%%grid2 1
G2A2B2 | "C"cBcg- gage|agec- cdcA|"F"FGAc- cdcA|dcAF- FGA2| \
   "G"BdBG- GGAG|BdBG- GGAG|"C"cBca- age2|1g2 :|2 c2 ||
|:z2g2^g2|"A"agea- age2|agea- age2|"D7"dcAd- dcA2|dcAd- dcA2 |1 \
   "G"BdBG- GGAG|
BdBG- GGAG| "C"cBca- age2| c2 :|2 \
"C"c'4 "Am"a4|"A7"gage- "D7"edc2|"G"GAce- ecd2 | "C"c2 |]

